icon-themes/breeze_svg/cmd/sc_dataprovider.svg

<svg viewBox="0 0 16 16" xmlns="http://www.w3.org/2000/svg"><path d="m2 2v12h1 6 1 4v-1-4-6-1zm1 1h3v2h-3zm4 0h2v2h-2zm3 0h3v2h-3zm-7 3h3v3h-3zm4 0h2v3h-2zm3 0h3v3h-3zm-7 4h3v3h-3zm4 0h2v3h-2zm3 0h3v3h-3z" fill="#4d4d4d"/><path d="m3 3v2h3v-2z" fill="#1d99f3"/></svg>

<svg viewBox="0 0 16 16" xmlns="http://www.w3.org/2000/svg">
  <path
     style="fill:#4d4d4d"
     d="m 2,2 v 12 h 1 6 1 4 V 13 9 3 2 Z M 3,3 H 6 V 5 H 3 Z M 7,3 H 9 V 5 H 7 Z m 3,0 h 3 V 5 H 10 Z M 3,6 H 6 V 9 H 3 Z M 7,6 H 9 V 9 H 7 Z m 3,0 h 3 v 3 h -3 z m -7,4 h 3 v 3 H 3 Z m 4,0 h 2 v 3 H 7 Z m 3,0 h 3 v 3 h -3 z"
     />
  <path
     style="fill:#1d99f3"
     d="M 3,3 V 5 H 6 V 3 Z"
     />
</svg>
